src/lib/images/icons/faq.svg

<svg width="32" height="32" viewBox="0 0 32 32" fill="none" xmlns="http://www.w3.org/2000/svg">
<path d="M32 15.3817C31.9896 15.1898 31.9116 15.0077 31.7798 14.8677C31.6481 14.7278 31.471 14.639 31.28 14.6171L29.3077 14.2979C29.219 14.2833 29.1373 14.2405 29.075 14.1758C29.0126 14.111 28.9728 14.0278 28.9615 13.9387C28.9238 13.6963 28.8846 13.4448 28.8308 13.2063C28.8134 13.1196 28.8236 13.0296 28.8599 12.9489C28.8961 12.8683 28.9567 12.8009 29.0331 12.7563L30.7854 11.7833C30.9594 11.6946 31.0947 11.545 31.1656 11.363C31.2365 11.1811 31.2381 10.9794 31.17 10.7963L30.8662 9.95788C30.7995 9.77422 30.6675 9.62158 30.4953 9.52919C30.3232 9.43679 30.123 9.41113 29.9331 9.45712L27.9677 9.84173C27.8798 9.85744 27.7892 9.845 27.7088 9.80618C27.6284 9.76737 27.5624 9.70416 27.52 9.62558C27.4054 9.41096 27.2808 9.1925 27.1508 8.97788C27.1036 8.90143 27.0814 8.81212 27.0875 8.72246C27.0936 8.6328 27.1275 8.54728 27.1846 8.47789L28.4923 6.96712C28.6251 6.8245 28.7015 6.63836 28.707 6.44355C28.7125 6.24873 28.6468 6.05857 28.5223 5.90866L27.9515 5.22327C27.8274 5.07284 27.6518 4.97383 27.4588 4.94541C27.2658 4.91699 27.0692 4.96118 26.9069 5.06943L25.1862 6.1025C25.1099 6.14821 25.0209 6.16818 24.9324 6.15945C24.8439 6.15073 24.7605 6.11377 24.6946 6.05404C24.5046 5.88712 24.31 5.72635 24.1277 5.57789C24.0577 5.52267 24.0072 5.44659 23.9834 5.36069C23.9596 5.27479 23.9638 5.18354 23.9954 5.10019L24.7077 3.22327C24.7853 3.04419 24.7944 2.84284 24.7332 2.65749C24.6721 2.47215 24.545 2.3157 24.3762 2.21789L23.6 1.76481C23.431 1.66736 23.232 1.63568 23.0411 1.67585C22.8502 1.71602 22.6808 1.82521 22.5654 1.9825L21.3077 3.5625C21.2625 3.63118 21.1947 3.68195 21.1161 3.7061C21.0375 3.73024 20.9529 3.72625 20.8769 3.69481C20.83 3.67558 20.4331 3.51327 20.1246 3.4102C20.04 3.38262 19.9664 3.3287 19.9147 3.25631C19.8629 3.18392 19.8357 3.09687 19.8369 3.00789L19.8669 1.0025C19.8776 0.806689 19.8166 0.613682 19.6953 0.459626C19.5739 0.30557 19.4006 0.20103 19.2077 0.165582L18.3269 0.0117355C18.135 -0.0214176 17.9376 0.0162244 17.7714 0.117667C17.6051 0.219109 17.4814 0.377453 17.4231 0.563274L16.7692 2.47173C16.7395 2.55645 16.6835 2.62943 16.6093 2.67996C16.5351 2.73049 16.4466 2.75591 16.3569 2.7525H15.6069C15.5179 2.75433 15.4306 2.72803 15.3574 2.67734C15.2842 2.62666 15.2288 2.55417 15.1992 2.4702L14.5485 0.572505C14.4912 0.385326 14.3677 0.225438 14.201 0.12278C14.0344 0.020123 13.836 -0.0182625 13.6431 0.0148125L12.7608 0.168659C12.5691 0.203827 12.3968 0.307343 12.2757 0.459989C12.1546 0.612634 12.093 0.804036 12.1023 0.998658L12.1331 3.01097C12.1337 3.10128 12.1051 3.18938 12.0516 3.26215C11.9981 3.33492 11.9226 3.38846 11.8362 3.41481C11.66 3.48327 11.2777 3.62943 11.1039 3.69404C10.95 3.74943 10.7823 3.68866 10.6469 3.5325L9.39616 1.99404C9.28141 1.83579 9.11219 1.72554 8.92107 1.6845C8.72994 1.64346 8.53038 1.67453 8.36078 1.77173L7.58693 2.2202C7.41619 2.31819 7.28777 2.47592 7.22641 2.66298C7.16505 2.85004 7.1751 3.05318 7.25462 3.23327L7.96616 5.10558C7.9972 5.1891 8.00128 5.28026 7.97783 5.36622C7.95437 5.45218 7.90456 5.52863 7.83539 5.58481C7.64847 5.73866 7.45693 5.8925 7.26616 6.06327C7.20066 6.12253 7.11791 6.15928 7.03002 6.16814C6.94213 6.177 6.85372 6.1575 6.7777 6.1125L5.07693 5.05943C4.91362 4.95319 4.71716 4.91021 4.5244 4.93853C4.33165 4.96686 4.15586 5.06455 4.03001 5.21327L3.46155 5.89712C3.33528 6.04601 3.26836 6.23625 3.27362 6.4314C3.27887 6.62656 3.35592 6.81292 3.49001 6.95481L4.80386 8.46404C4.86216 8.53205 4.89702 8.61703 4.90325 8.70639C4.90948 8.79575 4.88677 8.88475 4.83847 8.96019C4.70693 9.16942 4.58155 9.38942 4.4677 9.60942C4.42512 9.68856 4.35856 9.75218 4.27758 9.79115C4.19659 9.83012 4.10535 9.84244 4.01693 9.82635L2.05463 9.44712C1.86464 9.40127 1.66441 9.42698 1.49217 9.51935C1.31993 9.61171 1.18772 9.76426 1.12078 9.94788L0.81309 10.7848C0.74508 10.9681 0.74667 11.1699 0.817559 11.3521C0.888447 11.5343 1.02371 11.6842 1.1977 11.7733L2.95001 12.7463C3.02881 12.7898 3.09132 12.8578 3.1281 12.9399C3.16487 13.0221 3.17391 13.114 3.15386 13.2017L3.1354 13.2994C3.0954 13.514 3.05847 13.7171 3.02309 13.9333C3.01086 14.0213 2.97109 14.1033 2.90947 14.1674C2.84785 14.2315 2.76753 14.2745 2.68001 14.2902L0.703859 14.6094C0.510602 14.6331 0.33259 14.7264 0.203066 14.8718C0.0735426 15.0172 0.00136499 15.2047 1.31159e-05 15.3994V16.2902C-0.0011131 16.4856 0.0703244 16.6746 0.200493 16.8204C0.330662 16.9662 0.510302 17.0585 0.704628 17.0794L2.68001 17.3979C2.76878 17.4123 2.85048 17.4551 2.91288 17.5199C2.97529 17.5846 3.01503 17.6679 3.02617 17.7571C3.06386 18.0002 3.10309 18.251 3.15693 18.4894C3.17429 18.5762 3.16412 18.6661 3.12785 18.7468C3.09158 18.8275 3.03102 18.8948 2.95463 18.9394L1.20309 19.914C1.02909 20.0027 0.893764 20.1523 0.822848 20.3343C0.751932 20.5162 0.750376 20.7179 0.818474 20.901L1.12617 21.7394C1.19295 21.923 1.32501 22.0755 1.49713 22.1679C1.66924 22.2603 1.86935 22.286 2.05924 22.2402L4.02463 21.8594C4.11252 21.8435 4.20321 21.8558 4.28365 21.8946C4.36409 21.9335 4.43015 21.9968 4.47232 22.0756C4.5877 22.291 4.71155 22.5086 4.84155 22.7233C4.88899 22.7996 4.91125 22.889 4.90517 22.9787C4.8991 23.0684 4.86501 23.154 4.8077 23.2233L3.50001 24.7333C3.36561 24.8748 3.28753 25.0606 3.28045 25.2556C3.27337 25.4507 3.33777 25.6416 3.46155 25.7925L4.03155 26.4779C4.15562 26.6285 4.3312 26.7276 4.52422 26.756C4.71725 26.7844 4.91395 26.7401 5.07616 26.6317L6.79693 25.5986C6.87323 25.5529 6.9622 25.533 7.05071 25.5417C7.13921 25.5504 7.22257 25.5874 7.28847 25.6471C7.47924 25.814 7.67309 25.9748 7.85539 26.1233C7.9253 26.1785 7.97586 26.2546 7.99978 26.3404C8.02369 26.4263 8.01974 26.5175 7.98847 26.601L7.27539 28.4779C7.19782 28.657 7.18873 28.8583 7.24985 29.0437C7.31098 29.229 7.43805 29.3854 7.60693 29.4833L8.38462 29.9325C8.55354 30.03 8.7525 30.0618 8.9434 30.0218C9.1343 29.9818 9.30373 29.8727 9.41924 29.7156L10.6923 28.1502C10.8 28.0171 10.9692 27.9579 11.0946 28.0086C11.3623 28.1194 11.5415 28.1817 11.8592 28.2879C11.9439 28.3155 12.0175 28.3694 12.0693 28.4418C12.1212 28.5142 12.1487 28.6012 12.1477 28.6902L12.1169 30.694C12.1065 30.8898 12.1677 31.0826 12.289 31.2366C12.4103 31.3906 12.5834 31.4952 12.7762 31.531L13.6569 31.6848C13.8489 31.7183 14.0464 31.6808 14.2128 31.5793C14.3791 31.4778 14.5028 31.3193 14.5608 31.1333L15.2146 29.2279C15.2442 29.1431 15.3002 29.07 15.3745 29.0195C15.4487 28.969 15.5372 28.9436 15.6269 28.9471H16.3769C16.466 28.9452 16.5534 28.9714 16.6266 29.0221C16.6998 29.0728 16.7551 29.1454 16.7846 29.2294L17.4362 31.1271C17.4866 31.2918 17.5886 31.4361 17.727 31.5387C17.8654 31.6412 18.0331 31.6968 18.2054 31.6971C18.2513 31.6972 18.2971 31.6931 18.3423 31.6848L19.2246 31.531C19.4163 31.4958 19.5886 31.3923 19.7097 31.2396C19.8308 31.087 19.8924 30.8956 19.8831 30.701L19.8523 28.6886C19.8517 28.6 19.8794 28.5134 19.9312 28.4415C19.9831 28.3696 20.0565 28.3161 20.1408 28.2886C20.4362 28.1894 20.6439 28.1094 20.8262 28.0386L20.8723 28.021C21.1108 27.9386 21.2262 28.0386 21.2931 28.1217L22.5815 29.7086C22.697 29.8656 22.8663 29.9745 23.057 30.0145C23.2478 30.0546 23.4465 30.0229 23.6154 29.9256L24.39 29.4771C24.5594 29.3792 24.6869 29.2224 24.7481 29.0365C24.8092 28.8507 24.7998 28.6488 24.7215 28.4694L24.0108 26.5971C23.9794 26.5137 23.9751 26.4225 23.9984 26.3365C24.0218 26.2505 24.0716 26.174 24.1408 26.1179C24.3277 25.964 24.5192 25.8102 24.71 25.6394C24.7759 25.58 24.8592 25.5433 24.9475 25.5347C25.0359 25.5261 25.1246 25.5461 25.2008 25.5917L26.9231 26.6225C27.0863 26.7289 27.2828 26.772 27.4756 26.7436C27.6684 26.7153 27.8443 26.6175 27.97 26.4686L28.5392 25.784C28.6655 25.6351 28.7324 25.4449 28.7272 25.2497C28.7219 25.0546 28.6449 24.8682 28.5108 24.7263L27.1985 23.2133C27.1402 23.1453 27.1053 23.0603 27.0991 22.9709C27.0928 22.8816 27.1156 22.7926 27.1638 22.7171C27.2954 22.5086 27.4208 22.2886 27.5346 22.0679C27.5774 21.9889 27.644 21.9254 27.7249 21.8865C27.8058 21.8475 27.897 21.8351 27.9854 21.851L29.9454 22.2333C30.1354 22.2791 30.3356 22.2534 30.5078 22.161C30.6801 22.0687 30.8123 21.9161 30.8792 21.7325L31.1831 20.8956C31.251 20.7124 31.2494 20.5107 31.1785 20.3286C31.1076 20.1466 30.9724 19.9968 30.7985 19.9079L29.0446 18.9333C28.9669 18.8893 28.9054 18.8216 28.8693 18.7399C28.8331 18.6583 28.8242 18.5673 28.8438 18.4802L28.8623 18.3825C28.9023 18.1679 28.9392 17.9648 28.9746 17.7487C28.9868 17.6606 29.0266 17.5786 29.0882 17.5145C29.1499 17.4504 29.2302 17.4074 29.3177 17.3917L31.2938 17.0733C31.4876 17.0499 31.6662 16.9567 31.7961 16.8111C31.9261 16.6656 31.9986 16.4776 32 16.2825V15.3817ZM10.2731 22.6125C10.1772 22.7792 10.0432 22.9207 9.88198 23.0255C9.72077 23.1304 9.53699 23.1954 9.34575 23.2154C9.15451 23.2354 8.96125 23.2097 8.78187 23.1404C8.60248 23.0712 8.44209 22.9604 8.31386 22.8171C6.58089 20.901 5.62404 18.4079 5.63001 15.8243C5.63598 13.2408 6.60435 10.7521 8.34616 8.84404C8.47506 8.70082 8.63615 8.59027 8.81615 8.52151C8.99615 8.45275 9.18991 8.42774 9.38147 8.44855C9.57302 8.46936 9.7569 8.53539 9.91793 8.6412C10.079 8.747 10.2126 8.88956 10.3077 9.05712L13.8192 15.2379C13.9247 15.4222 13.9802 15.6309 13.9802 15.8433C13.9802 16.0556 13.9247 16.2643 13.8192 16.4487L10.2731 22.6125ZM16 26.2417C15.268 26.2419 14.538 26.1646 13.8223 26.011C13.6359 25.9693 13.4618 25.8843 13.3144 25.7629C13.1669 25.6414 13.0501 25.4869 12.9735 25.3119C12.8968 25.1369 12.8625 24.9463 12.8733 24.7556C12.884 24.5648 12.9396 24.3793 13.0354 24.214L16.5739 18.0602C16.6803 17.8748 16.8338 17.7207 17.0188 17.6136C17.2039 17.5065 17.4139 17.4501 17.6277 17.4502H24.7154C24.9063 17.4499 25.0946 17.4946 25.265 17.5806C25.4355 17.6667 25.5832 17.7917 25.6964 17.9455C25.8095 18.0993 25.8848 18.2775 25.9161 18.4659C25.9475 18.6542 25.9341 18.8473 25.8769 19.0294C24.5315 23.2079 20.6154 26.2417 16 26.2417ZM16.5777 13.634L13.0769 7.46943C12.9821 7.30389 12.9275 7.11835 12.9176 6.92781C12.9077 6.73727 12.9427 6.54707 13.0199 6.37259C13.0971 6.19811 13.2143 6.04424 13.362 5.92343C13.5097 5.80261 13.6837 5.71823 13.87 5.67712C14.5704 5.52952 15.2842 5.45527 16 5.45558C20.6154 5.45558 24.5315 8.48942 25.8746 12.6702C25.9318 12.8524 25.9452 13.0454 25.9138 13.2337C25.8825 13.4221 25.8072 13.6004 25.694 13.7542C25.5809 13.908 25.4332 14.0329 25.2627 14.119C25.0923 14.205 24.904 14.2497 24.7131 14.2494H17.6362C17.421 14.2498 17.2096 14.1931 17.0237 14.085C16.8377 13.9768 16.6838 13.8212 16.5777 13.634Z" fill="white"/>
</svg>

<svg width="32" height="32" fill="none" xmlns="http://www.w3.org/2000/svg"><path d="M32 15.382a.814.814 0 0 0-.72-.765l-1.972-.32a.417.417 0 0 1-.346-.358 11.161 11.161 0 0 0-.131-.733.424.424 0 0 1 .202-.45l1.752-.973a.796.796 0 0 0 .385-.987l-.304-.838a.794.794 0 0 0-.933-.5l-1.965.384a.424.424 0 0 1-.448-.216 13.85 13.85 0 0 0-.37-.648.43.43 0 0 1 .035-.5l1.307-1.51a.802.802 0 0 0 .03-1.06l-.57-.685a.787.787 0 0 0-1.045-.154l-1.72 1.034a.415.415 0 0 1-.492-.049 19.89 19.89 0 0 0-.567-.476.42.42 0 0 1-.133-.478l.713-1.877a.796.796 0 0 0-.332-1.005l-.776-.453a.792.792 0 0 0-1.035.218l-1.257 1.58a.354.354 0 0 1-.431.132c-.047-.02-.444-.182-.752-.285a.417.417 0 0 1-.288-.402l.03-2.006a.806.806 0 0 0-.66-.836l-.88-.154a.804.804 0 0 0-.904.551l-.654 1.909a.42.42 0 0 1-.412.28h-.75a.423.423 0 0 1-.408-.282L14.55.573a.805.805 0 0 0-.906-.558l-.882.154a.804.804 0 0 0-.659.83l.031 2.012a.42.42 0 0 1-.297.404c-.176.068-.558.214-.732.279-.154.055-.322-.005-.457-.161l-1.25-1.539a.792.792 0 0 0-1.036-.222l-.774.448a.797.797 0 0 0-.332 1.013l.711 1.873a.426.426 0 0 1-.13.479c-.188.154-.38.308-.57.478a.414.414 0 0 1-.488.05L5.077 5.058a.8.8 0 0 0-1.047.154l-.568.684a.793.793 0 0 0 .028 1.058l1.314 1.509a.417.417 0 0 1 .034.496c-.131.21-.256.43-.37.65a.425.425 0 0 1-.451.216l-1.962-.379a.795.795 0 0 0-.934.5l-.308.838a.798.798 0 0 0 .385.988l1.752.973a.415.415 0 0 1 .204.456l-.019.097c-.04.215-.077.418-.112.634a.422.422 0 0 1-.343.357l-1.976.32A.801.801 0 0 0 0 15.4v.89a.79.79 0 0 0 .705.79l1.975.318a.416.416 0 0 1 .346.36c.038.242.077.493.13.731a.425.425 0 0 1-.201.45l-1.752.975a.796.796 0 0 0-.385.987l.308.838a.795.795 0 0 0 .933.501l1.966-.38a.423.423 0 0 1 .447.216c.116.215.24.433.37.647a.429.429 0 0 1-.034.5L3.5 24.733a.8.8 0 0 0-.038 1.06l.57.685a.787.787 0 0 0 1.044.154l1.72-1.033a.415.415 0 0 1 .492.048c.191.167.385.328.567.476a.42.42 0 0 1 .133.478l-.713 1.877a.796.796 0 0 0 .332 1.005l.778.45a.793.793 0 0 0 1.034-.217l1.273-1.566c.108-.133.277-.192.403-.141.267.11.446.173.764.279a.417.417 0 0 1 .289.402l-.031 2.004a.808.808 0 0 0 .66.837l.88.154a.802.802 0 0 0 .904-.552l.654-1.905a.419.419 0 0 1 .412-.28h.75a.423.423 0 0 1 .408.281l.651 1.898a.806.806 0 0 0 .906.558l.883-.154a.804.804 0 0 0 .658-.83l-.03-2.012a.418.418 0 0 1 .288-.4c.295-.1.503-.18.685-.25l.046-.018c.239-.082.354.018.421.1l1.288 1.588a.792.792 0 0 0 1.034.217l.775-.449a.797.797 0 0 0 .331-1.008l-.71-1.872a.425.425 0 0 1 .13-.48c.187-.153.378-.307.569-.478a.415.415 0 0 1 .49-.047l1.723 1.03a.799.799 0 0 0 1.047-.153l.57-.685a.793.793 0 0 0-.03-1.058l-1.312-1.513a.417.417 0 0 1-.034-.496c.131-.208.257-.428.37-.65a.427.427 0 0 1 .451-.216l1.96.382a.795.795 0 0 0 .934-.5l.304-.837a.798.798 0 0 0-.384-.988l-1.754-.975a.415.415 0 0 1-.201-.453l.018-.098c.04-.214.077-.417.113-.633a.422.422 0 0 1 .343-.357l1.976-.319a.802.802 0 0 0 .706-.79v-.901zm-21.727 7.23a1.215 1.215 0 0 1-1.96.205 10.39 10.39 0 0 1 .033-13.973 1.216 1.216 0 0 1 1.962.213l3.511 6.18a1.219 1.219 0 0 1 0 1.212l-3.546 6.163zM16 26.242c-.732 0-1.462-.077-2.178-.231a1.217 1.217 0 0 1-.787-1.797l3.539-6.154a1.215 1.215 0 0 1 1.054-.61h7.087a1.216 1.216 0 0 1 1.162 1.58c-1.345 4.178-5.262 7.212-9.877 7.212zm.578-12.608l-3.501-6.165a1.217 1.217 0 0 1 .793-1.792c.7-.147 1.414-.222 2.13-.221 4.615 0 8.532 3.033 9.875 7.214a1.214 1.214 0 0 1-1.162 1.58h-7.077a1.214 1.214 0 0 1-1.058-.616z" fill="#fff"/></svg>
